Icons/Colored/Off.svg

<svg xmlns="http://www.w3.org/2000/svg" xml:space="preserve" fill-rule="evenodd" stroke-linejoin="round" stroke-miterlimit="2" clip-rule="evenodd" viewBox="0 0 64 64">
  <g id="red">
    <path fill="#ff2721" fill-rule="nonzero" d="M32.012 9.734a3.548 3.548 0 0 1 3.554 3.555v17.777a3.548 3.548 0 0 1-3.554 3.555 3.548 3.548 0 0 1-3.555-3.555V13.289a3.548 3.548 0 0 1 3.555-3.555Z"/>
  </g>
  <g id="grey">
    <path fill="#575757" fill-rule="nonzero" d="M32.012 54.266h-.032c-11.703 0-21.335-9.629-21.335-21.332 0-9.661 6.562-18.168 15.898-20.629v5.59A16.032 16.032 0 0 0 16.012 32.93c0 8.777 7.222 16 16 16 8.777 0 16-7.223 16-16 0-6.848-4.399-12.973-10.891-15.16v-5.559c9.5 2.34 16.231 10.93 16.231 20.715 0 5.66-2.25 11.094-6.254 15.094a21.211 21.211 0 0 1-15.086 6.246Z"/>
  </g>
</svg>

<?xml version="1.0" encoding="UTF-8" standalone="no"?>
<!DOCTYPE svg PUBLIC "-//W3C//DTD SVG 1.1//EN" "http://www.w3.org/Graphics/SVG/1.1/DTD/svg11.dtd">
<svg width="100%" height="100%" viewBox="0 0 64 64" version="1.1" xmlns="http://www.w3.org/2000/svg" xmlns:xlink="http://www.w3.org/1999/xlink" xml:space="preserve" xmlns:serif="http://www.serif.com/" style="fill-rule:evenodd;clip-rule:evenodd;stroke-linejoin:round;stroke-miterlimit:2;">
    <g id="surface1">
        <path d="M32.012,54.266L31.98,54.266C20.277,54.266 10.645,44.637 10.645,32.934C10.645,23.273 17.207,14.766 26.543,12.305L26.543,17.895C20.238,20.188 16.012,26.219 16.012,32.93C16.012,41.707 23.234,48.93 32.012,48.93C40.789,48.93 48.012,41.707 48.012,32.93C48.012,26.082 43.613,19.957 37.121,17.77L37.121,12.211C46.621,14.551 53.352,23.141 53.352,32.926C53.352,38.586 51.102,44.02 47.098,48.02C43.105,52.031 37.672,54.281 32.012,54.266Z" style="fill:#575757;fill-rule:nonzero;"/>
        <path d="M32.012,9.734C33.98,9.734 35.566,11.32 35.566,13.289L35.566,31.066C35.566,33.035 33.98,34.621 32.012,34.621C30.043,34.621 28.457,33.035 28.457,31.066L28.457,13.289C28.457,11.32 30.043,9.734 32.012,9.734Z" style="fill:#ff2721;fill-rule:nonzero;"/>
    </g>
</svg>
